X:1
T:Little Burnt Potato
S:Anthony Bearon and Norman Bearon, June 2005
H:was Anon053
O:November 2004
M:6/8
L:1/8
R:Jig
K:G
B2 c | d2 d ed^c | d2 D G2 A | B2 B c2 B | A2 E EFG |\
 A2 B A2 F | DFA d3 | d^cd ed=c | B3 |]
